X:0363
M:6/8
L:1/8
Q:3/8=108
K:A Dorian
f   |g>fg efg|aga dga|bag  edB|e2A A2::
e/g/|aba  aec|aec A2f|g>ag gdB|gdB G2
f   |g>fg efg|aga dga|bag  edB|e2A A2:|

